X: 29558
T: Noisy Curlew, The
R: reel
M: 4/4
K: Dmajor
|:DFAF DGBG|DFAF EDCE|DF~F2 ABde|fdAG FGEF|
DFAF DGBG|DFAF EDCE|DF~F2 ABde|fdAG FDD2:|
|:fgaf g2ag|fgaf gfeg|fgaf geag|fdAG FDDg|
fgaf g2ag|fgaf gfeg|fdAF Gzag|1 (3faf ea fddg:|2 (3faf ea fdAF||

